img/discount.svg

<svg width="48" height="48" viewBox="0 0 48 48" fill="none" xmlns="http://www.w3.org/2000/svg">
<path d="M12.4946 36.9144L15.952 39L35.5438 11.4866L32.2401 9L12.4946 36.9144ZM8 17.1417C8 21.3128 11.1885 24.2406 15.3758 24.2406C19.563 24.2406 22.7131 21.3128 22.7131 17.1417C22.7131 12.9305 19.563 10.0027 15.3758 10.0027C11.1885 10.0027 8 12.9305 8 17.1417ZM12.3409 17.1417C12.3409 15.1765 13.7623 13.893 15.3758 13.893C16.9892 13.893 18.3721 15.1765 18.3721 17.1417C18.3721 19.1471 17.0276 20.4305 15.3758 20.4305C13.8007 20.4305 12.3409 19.1471 12.3409 17.1417ZM25.2869 31.2193C25.2869 35.3904 28.4754 38.3583 32.6627 38.3583C36.8115 38.3583 40 35.3904 40 31.2193C40 27.008 36.8115 24.1203 32.6627 24.1203C28.4754 24.1203 25.2869 27.008 25.2869 31.2193ZM29.6278 31.2193C29.6278 29.2139 31.0492 27.9305 32.6627 27.9305C34.2377 27.9305 35.6591 29.2139 35.6591 31.2193C35.6591 33.1845 34.2761 34.4679 32.6627 34.4679C31.0876 34.4679 29.6278 33.1845 29.6278 31.2193Z" fill="#005975"/>
</svg>

<svg width="48" height="48" fill="none" xmlns="http://www.w3.org/2000/svg"><path d="M12.495 36.914 15.952 39l19.592-27.513L32.24 9 12.495 36.914ZM8 17.142c0 4.17 3.188 7.099 7.376 7.099 4.187 0 7.337-2.928 7.337-7.1 0-4.21-3.15-7.138-7.337-7.138C11.188 10.003 8 12.93 8 17.142Zm4.34 0c0-1.965 1.422-3.249 3.036-3.249 1.613 0 2.996 1.284 2.996 3.249 0 2.005-1.344 3.288-2.996 3.288-1.575 0-3.035-1.283-3.035-3.288Zm12.947 14.077c0 4.171 3.188 7.14 7.376 7.14 4.149 0 7.337-2.969 7.337-7.14 0-4.211-3.188-7.099-7.337-7.099-4.188 0-7.376 2.888-7.376 7.1Zm4.34 0c0-2.005 1.422-3.289 3.036-3.289 1.575 0 2.996 1.284 2.996 3.29 0 1.965-1.383 3.248-2.996 3.248-1.575 0-3.035-1.284-3.035-3.249Z" fill="#005975"/></svg>
